svg/middleware.svg

<svg xmlns="http://www.w3.org/2000/svg" viewBox="0 0 24 24"><path d="m23 12-4-4v3h-4.18C14.4 9.84 13.3 9 12 9s-2.4.84-2.82 2H5L2 8v8l3-3h4.18c.42 1.16 1.52 2 2.82 2s2.4-.84 2.82-2H19v3z"/></svg>

<?xml version="1.0" encoding="UTF-8"?><!DOCTYPE svg PUBLIC "-//W3C//DTD SVG 1.1//EN" "http://www.w3.org/Graphics/SVG/1.1/DTD/svg11.dtd"><svg xmlns="http://www.w3.org/2000/svg" xmlns:xlink="http://www.w3.org/1999/xlink" version="1.1" id="mdi-middleware" width="24" height="24" viewBox="0 0 24 24"><path d="M23 12L19 8V11H14.82C14.4 9.84 13.3 9 12 9S9.6 9.84 9.18 11H5L2 8V16L5 13H9.18C9.6 14.16 10.7 15 12 15S14.4 14.16 14.82 13H19V16L23 12Z" /></svg>
